korla/apps/scalable/minecraft-launcher.svg

<?xml version="1.0" encoding="UTF-8" standalone="no"?>
<svg
   xmlns:dc="http://purl.org/dc/elements/1.1/"
   xmlns:cc="http://creativecommons.org/ns#"
   xmlns:rdf="http://www.w3.org/1999/02/22-rdf-syntax-ns#"
   xmlns:svg="http://www.w3.org/2000/svg"
   xmlns="http://www.w3.org/2000/svg"
   xmlns:xlink="http://www.w3.org/1999/xlink"
   xmlns:sodipodi="http://sodipodi.sourceforge.net/DTD/sodipodi-0.dtd"
   xmlns:inkscape="http://www.inkscape.org/namespaces/inkscape"
   height="48"
   width="48"
   version="1.1"
   id="svg29"
   sodipodi:docname="minecraft-launcher.svg"
   inkscape:version="0.92.2 (5c3e80d, 2017-08-06)">
  <metadata
     id="metadata35">
    <rdf:RDF>
      <cc:Work
         rdf:about="">
        <dc:format>image/svg+xml</dc:format>
        <dc:type
           rdf:resource="http://purl.org/dc/dcmitype/StillImage" />
        <dc:title></dc:title>
      </cc:Work>
    </rdf:RDF>
  </metadata>
  <defs
     id="defs33">
    <linearGradient
       gradientTransform="matrix(0.04954811,0,0,0.04759032,19.933392,-26.3387)"
       y2="828.57574"
       y1="1517.4567"
       x2="510.5639"
       x1="98.123421"
       gradientUnits="userSpaceOnUse"
       id="linearGradient1473">
      <stop
         id="stop1469"
         stop-color="#0fc"
         offset="0"
         style="stop-color:#2ca02c;stop-opacity:1" />
      <stop
         id="stop1471"
         stop-color="#0a8"
         offset="1"
         style="stop-color:#00aa44;stop-opacity:1" />
    </linearGradient>
    <linearGradient
       inkscape:collect="always"
       id="linearGradient862">
      <stop
         style="stop-color:#483737;stop-opacity:1"
         offset="0"
         id="stop858" />
      <stop
         style="stop-color:#ac9393;stop-opacity:1"
         offset="1"
         id="stop860" />
    </linearGradient>
    <linearGradient
       inkscape:collect="always"
       id="linearGradient854">
      <stop
         style="stop-color:#6c5353;stop-opacity:1;"
         offset="0"
         id="stop850" />
      <stop
         style="stop-color:#ac9d93;stop-opacity:1"
         offset="1"
         id="stop852" />
    </linearGradient>
    <linearGradient
       inkscape:collect="always"
       xlink:href="#linearGradient854"
       id="linearGradient856"
       x1="11.657143"
       y1="40.028572"
       x2="11.485714"
       y2="11.657143"
       gradientUnits="userSpaceOnUse"
       gradientTransform="matrix(0.95652182,0,0,0.95652182,1.0434763,1.0434782)" />
    <linearGradient
       inkscape:collect="always"
       xlink:href="#linearGradient862"
       id="linearGradient864"
       x1="34.200001"
       y1="40.457142"
       x2="33.257141"
       y2="12.857142"
       gradientUnits="userSpaceOnUse"
       gradientTransform="matrix(0.95652182,0,0,0.95652182,1.0434763,1.0434782)" />
    <linearGradient
       inkscape:collect="always"
       xlink:href="#a"
       id="linearGradient879"
       gradientUnits="userSpaceOnUse"
       x1="39"
       y1="15.599999"
       x2="38.571426"
       y2="45.599998"
       gradientTransform="matrix(0.95652182,0,0,0.95652182,1.0475176,-14.213018)" />
    <linearGradient
       inkscape:collect="always"
       xlink:href="#linearGradient1473"
       id="linearGradient884"
       gradientUnits="userSpaceOnUse"
       gradientTransform="matrix(0.95652182,0,0,0.95652182,1.0434763,-14.260871)"
       x1="11.914286"
       y1="32.14286"
       x2="12.171428"
       y2="55.114285" />
    <filter
       style="color-interpolation-filters:sRGB;"
       inkscape:menu-tooltip="Paper like emboss effect"
       inkscape:menu="Bumps"
       inkscape:label="Paper Bump"
       id="filter1192">
      <feTurbulence
         result="result0"
         seed="0"
         baseFrequency="1"
         numOctaves="5"
         type="fractalNoise"
         id="feTurbulence1174" />
      <feConvolveMatrix
         result="result5"
         order="5 5"
         kernelMatrix="-2 0 0 0 -2 0 -2 0 -2 0 0 0 -10 0 0 0 -2 0 -2 0 -2 0 0 0 -2 "
         targetX="2"
         targetY="2"
         id="feConvolveMatrix1176" />
      <feComposite
         result="result2"
         k3="0.5"
         k2="0.5"
         k1="1.5"
         operator="arithmetic"
         in="result5"
         in2="SourceGraphic"
         id="feComposite1178" />
      <feColorMatrix
         in="result2"
         type="luminanceToAlpha"
         result="result2"
         id="feColorMatrix1180" />
      <feDiffuseLighting
         surfaceScale="5"
         result="result1"
         diffuseConstant="0.6"
         id="feDiffuseLighting1184">
        <feDistantLight
           elevation="35"
           azimuth="225"
           id="feDistantLight1182" />
      </feDiffuseLighting>
      <feComposite
         operator="arithmetic"
         in="result1"
         k1="1.5"
         k3="0.5"
         result="result3"
         in2="SourceGraphic"
         id="feComposite1186" />
      <feBlend
         in="result3"
         mode="normal"
         result="result6"
         in2="result1"
         id="feBlend1188" />
      <feComposite
         operator="in"
         in2="SourceGraphic"
         id="feComposite1190" />
    </filter>
    <filter
       style="color-interpolation-filters:sRGB;"
       inkscape:menu-tooltip="Paper like emboss effect"
       inkscape:menu="Bumps"
       inkscape:label="Paper Bump"
       id="filter1382">
      <feTurbulence
         result="result0"
         seed="0"
         baseFrequency="1"
         numOctaves="5"
         type="fractalNoise"
         id="feTurbulence1364" />
      <feConvolveMatrix
         result="result5"
         order="5 5"
         kernelMatrix="-2 0 0 0 -2 0 -2 0 -2 0 0 0 -10 0 0 0 -2 0 -2 0 -2 0 0 0 -2 "
         targetX="2"
         targetY="2"
         id="feConvolveMatrix1366" />
      <feComposite
         result="result2"
         k3="0.5"
         k2="0.5"
         k1="1.5"
         operator="arithmetic"
         in="result5"
         in2="SourceGraphic"
         id="feComposite1368" />
      <feColorMatrix
         in="result2"
         type="luminanceToAlpha"
         result="result2"
         id="feColorMatrix1370" />
      <feDiffuseLighting
         surfaceScale="5"
         result="result1"
         diffuseConstant="0.6"
         id="feDiffuseLighting1374">
        <feDistantLight
           elevation="35"
           azimuth="225"
           id="feDistantLight1372" />
      </feDiffuseLighting>
      <feComposite
         operator="arithmetic"
         in="result1"
         k1="1.5"
         k3="0.5"
         result="result3"
         in2="SourceGraphic"
         id="feComposite1376" />
      <feBlend
         in="result3"
         mode="normal"
         result="result6"
         in2="result1"
         id="feBlend1378" />
      <feComposite
         operator="in"
         in2="SourceGraphic"
         id="feComposite1380" />
    </filter>
    <filter
       style="color-interpolation-filters:sRGB;"
       inkscape:menu-tooltip="Paper like emboss effect"
       inkscape:menu="Bumps"
       inkscape:label="Paper Bump"
       id="filter1408">
      <feTurbulence
         result="result0"
         seed="0"
         baseFrequency="1"
         numOctaves="5"
         type="fractalNoise"
         id="feTurbulence1390" />
      <feConvolveMatrix
         result="result5"
         order="5 5"
         kernelMatrix="-2 0 0 0 -2 0 -2 0 -2 0 0 0 -10 0 0 0 -2 0 -2 0 -2 0 0 0 -2 "
         targetX="2"
         targetY="2"
         id="feConvolveMatrix1392" />
      <feComposite
         result="result2"
         k3="0.5"
         k2="0.5"
         k1="1.5"
         operator="arithmetic"
         in="result5"
         in2="SourceGraphic"
         id="feComposite1394" />
      <feColorMatrix
         in="result2"
         type="luminanceToAlpha"
         result="result2"
         id="feColorMatrix1396" />
      <feDiffuseLighting
         surfaceScale="5"
         result="result1"
         diffuseConstant="0.6"
         id="feDiffuseLighting1400">
        <feDistantLight
           elevation="35"
           azimuth="225"
           id="feDistantLight1398" />
      </feDiffuseLighting>
      <feComposite
         operator="arithmetic"
         in="result1"
         k1="1.5"
         k3="0.5"
         result="result3"
         in2="SourceGraphic"
         id="feComposite1402" />
      <feBlend
         in="result3"
         mode="normal"
         result="result6"
         in2="result1"
         id="feBlend1404" />
      <feComposite
         operator="in"
         in2="SourceGraphic"
         id="feComposite1406" />
    </filter>
    <filter
       style="color-interpolation-filters:sRGB;"
       inkscape:menu-tooltip="Paper like emboss effect"
       inkscape:menu="Bumps"
       inkscape:label="Paper Bump"
       id="filter1428">
      <feTurbulence
         result="result0"
         seed="0"
         baseFrequency="1"
         numOctaves="5"
         type="fractalNoise"
         id="feTurbulence1410" />
      <feConvolveMatrix
         result="result5"
         order="5 5"
         kernelMatrix="-2 0 0 0 -2 0 -2 0 -2 0 0 0 -10 0 0 0 -2 0 -2 0 -2 0 0 0 -2 "
         targetX="2"
         targetY="2"
         id="feConvolveMatrix1412" />
      <feComposite
         result="result2"
         k3="0.5"
         k2="0.5"
         k1="1.5"
         operator="arithmetic"
         in="result5"
         in2="SourceGraphic"
         id="feComposite1414" />
      <feColorMatrix
         in="result2"
         type="luminanceToAlpha"
         result="result2"
         id="feColorMatrix1416" />
      <feDiffuseLighting
         surfaceScale="5"
         result="result1"
         diffuseConstant="0.6"
         id="feDiffuseLighting1420">
        <feDistantLight
           elevation="35"
           azimuth="225"
           id="feDistantLight1418" />
      </feDiffuseLighting>
      <feComposite
         operator="arithmetic"
         in="result1"
         k1="1.5"
         k3="0.5"
         result="result3"
         in2="SourceGraphic"
         id="feComposite1422" />
      <feBlend
         in="result3"
         mode="normal"
         result="result6"
         in2="result1"
         id="feBlend1424" />
      <feComposite
         operator="in"
         in2="SourceGraphic"
         id="feComposite1426" />
    </filter>
    <linearGradient
       inkscape:collect="always"
       xlink:href="#linearGradient862"
       id="linearGradient1458"
       gradientUnits="userSpaceOnUse"
       gradientTransform="matrix(0.95652182,0,0,0.95652182,1.0434763,1.0434782)"
       x1="34.200001"
       y1="40.457142"
       x2="33.257141"
       y2="12.857142" />
    <linearGradient
       inkscape:collect="always"
       xlink:href="#linearGradient854"
       id="linearGradient1460"
       gradientUnits="userSpaceOnUse"
       gradientTransform="matrix(0.95652182,0,0,0.95652182,1.0434763,1.0434782)"
       x1="11.657143"
       y1="40.028572"
       x2="11.485714"
       y2="11.657143" />
  </defs>
  <sodipodi:namedview
     pagecolor="#ffffff"
     bordercolor="#666666"
     borderopacity="1"
     objecttolerance="10"
     gridtolerance="10"
     guidetolerance="10"
     inkscape:pageopacity="0"
     inkscape:pageshadow="2"
     inkscape:window-width="640"
     inkscape:window-height="480"
     id="namedview31"
     showgrid="false"
     inkscape:zoom="11.313709"
     inkscape:cx="27.694274"
     inkscape:cy="20.016906"
     inkscape:current-layer="svg29" />
  <linearGradient
     id="a"
     gradientUnits="userSpaceOnUse"
     x1="98.123421"
     x2="510.5639"
     y1="1517.4567"
     y2="828.57574"
     gradientTransform="matrix(0.04954811,0,0,0.04759032,19.933392,-26.3387)">
    <stop
       offset="0"
       stop-color="#0fc"
       id="stop2"
       style="stop-color:#00d455;stop-opacity:1" />
    <stop
       offset="1"
       stop-color="#0a8"
       id="stop4"
       style="stop-color:#2ca02c;stop-opacity:1" />
  </linearGradient>
  <linearGradient
     id="b"
     gradientUnits="userSpaceOnUse"
     x1="-323.8826"
     x2="75.681633"
     y1="1270.6443"
     y2="1061.4048"
     gradientTransform="matrix(0.04954811,0,0,0.04759032,19.933392,-26.3387)">
    <stop
       offset="0"
       stop-color="#5fd"
       id="stop7" />
    <stop
       offset="1"
       stop-color="#2affd5"
       id="stop9" />
  </linearGradient>
  <linearGradient
     id="c"
     gradientUnits="userSpaceOnUse"
     x1="73.726746"
     x2="90.761726"
     y1="1076.3948"
     y2="571.00085"
     gradientTransform="matrix(0.04739385,0,0,0.04552118,20.110201,-24.150063)">
    <stop
       offset="0"
       stop-color="#00d4aa"
       id="stop12"
       style="stop-color:#00aa44;stop-opacity:1" />
    <stop
       offset="1"
       stop-color="#2affd5"
       id="stop14"
       style="stop-color:#afe9af;stop-opacity:1" />
  </linearGradient>
  <path
     d="M 23.997827,45.951925 44.155226,34.559817 44.018011,13.128249 23.997827,24.098795 Z"
     id="path17"
     style="fill:url(#linearGradient1458);fill-opacity:1;fill-rule:evenodd;stroke-width:0.04644808"
     inkscape:connector-curvature="0" />
  <path
     d="M 23.997827,45.951925 3.8447742,34.607893 3.9819889,13.176327 24.002173,24.14687 Z"
     id="path19"
     style="fill:url(#linearGradient1460);fill-opacity:1;fill-rule:evenodd;stroke-width:0.04644808"
     inkscape:connector-curvature="0"
     sodipodi:nodetypes="ccccc" />
  <path
     d="M 3.9236271,13.232976 24.097377,2 44.092516,13.23715 23.989584,24.25166 Z"
     id="path21"
     style="fill:url(#c);fill-rule:evenodd;stroke-width:0.04644808"
     inkscape:connector-curvature="0" />
  <path
     inkscape:connector-curvature="0"
     style="opacity:0.1;fill:url(#linearGradient856);fill-opacity:1;fill-rule:evenodd;stroke-width:0.04644808;filter:url(#filter1408)"
     id="path1386"
     d="M 23.997827,45.951925 3.8447742,34.607893 3.9819889,13.176327 24.002173,24.14687 Z"
     sodipodi:nodetypes="ccccc" />
  <path
     style="fill:url(#linearGradient884);fill-opacity:1;fill-rule:evenodd;stroke-width:0.04644808"
     d="m 3.9821655,13.175613 -0.039232,6.183764 20.0591935,11.335557 -0.0043,-6.596139 z"
     id="path870"
     inkscape:connector-curvature="0"
     sodipodi:nodetypes="ccccc" />
  <path
     inkscape:connector-curvature="0"
     style="opacity:0.1;fill:url(#linearGradient864);fill-opacity:1;fill-rule:evenodd;stroke-width:0.04644808;filter:url(#filter1428)"
     id="path1388"
     d="M 23.997827,45.951925 44.155226,34.559817 44.018011,13.128249 23.997827,24.098795 Z" />
  <path
     style="fill:url(#linearGradient879);fill-opacity:1;fill-rule:evenodd;stroke-width:0.04644808"
     d="m 44.021876,13.17676 -20.024049,10.922035 0.0043,6.596139 20.058935,-11.336278 z"
     id="path877"
     inkscape:connector-curvature="0"
     sodipodi:nodetypes="ccccc" />
</svg>

<svg style="clip-rule:evenodd;fill-rule:evenodd;stroke-linejoin:round;stroke-miterlimit:1.41421" version="1.1" viewBox="0 0 48 48" xmlns="http://www.w3.org/2000/svg">
 <path d="m23.998 45.952l20.157-11.392-0.137-21.432-20.02 10.971v21.853z" style="fill:url(#_Linear1)"/>
 <path d="m23.998 45.952l-20.153-11.344 0.137-21.432 20.02 10.971-4e-3 21.805z" style="fill:url(#_Linear2)"/>
 <path d="m3.924 13.233l20.173-11.233 19.996 11.237-20.103 11.015-20.066-11.019z" style="fill:url(#_Linear3)"/>
 <path d="m3.982 13.176l-0.039 6.183 20.059 11.336-4e-3 -6.596-20.016-10.923z" style="fill:url(#_Linear4)"/>
 <path d="m44.022 13.177l-20.024 10.922 4e-3 6.596 20.059-11.336-0.039-6.182z" style="fill:url(#_Linear5)"/>
 <defs>
  <linearGradient id="_Linear1" x2="1" gradientTransform="matrix(-.901866 -26.4 26.4 -.901866 33.7565 39.7416)" gradientUnits="userSpaceOnUse">
   <stop style="stop-color:#483737" offset="0"/>
   <stop style="stop-color:#ac9393" offset="1"/>
  </linearGradient>
  <linearGradient id="_Linear2" x2="1" gradientTransform="matrix(-.163976 -27.1379 27.1379 -.163976 12.1938 39.3317)" gradientUnits="userSpaceOnUse">
   <stop style="stop-color:#6c5353" offset="0"/>
   <stop style="stop-color:#ac9d93" offset="1"/>
  </linearGradient>
  <linearGradient id="_Linear3" x2="1" gradientTransform="matrix(.807353 -23.0061 23.0061 .807353 23.6044 24.8487)" gradientUnits="userSpaceOnUse">
   <stop style="stop-color:#00d4aa" offset="0"/>
   <stop style="stop-color:#2affd5" offset="1"/>
  </linearGradient>
  <linearGradient id="_Linear4" x2="1" gradientTransform="matrix(.245962 21.9727 -21.9727 .245962 12.4398 16.4845)" gradientUnits="userSpaceOnUse">
   <stop style="stop-color:#0fc" offset="0"/>
   <stop style="stop-color:#0a8" offset="1"/>
  </linearGradient>
  <linearGradient id="_Linear5" x2="1" gradientTransform="matrix(-.40994 28.6957 -28.6957 -.40994 38.3519 .708721)" gradientUnits="userSpaceOnUse">
   <stop style="stop-color:#0fc" offset="0"/>
   <stop style="stop-color:#0a8" offset="1"/>
  </linearGradient>
 </defs>
</svg>
